X: 030033
T: Cranberry Bog 
C: BB
R: reel
Q: 1/8=350
M: 4/4
L: 1/8
K: G
B|:"G"dBge dBBd|"C"ec ~c2 "Bm"BAGF|"Em"EBBc "G"BGEG|"D"(3FED AF BDAD|
"G"dBge dBBd|"C"egdc "Bm"BAGF|"C"ECEG "G"B,DGB|1 "D7"cdAF "G"GABc :|2\
"D7"cdAF "G"G4 ||
"G"dg (3gfg bg (3gfg|"D"afdf "C"gece|"G"d2 Bd "Am"cAEA|"D"(3FED AF BDAD|
"G"dg (3gfg dgba|"Am"gecA "G"dBGF|"C"ECEG "G"B,DGB|1 "D7"cdAF "G"GABc :|2\
"D7"cdAF "G"G4||
